fonts/xavani/uni002b.svg

<?xml version="1.0" encoding="UTF-8" standalone="no"?>
<svg width="500" height="850" version="1.1" id="svg2" sodipodi:docname="uni002b.svg" inkscape:version="1.4.2 (ebf0e940, 2025-05-08)" xmlns:inkscape="http://www.inkscape.org/namespaces/inkscape" xmlns:sodipodi="http://sodipodi.sourceforge.net/DTD/sodipodi-0.dtd" xmlns="http://www.w3.org/2000/svg" xmlns:svg="http://www.w3.org/2000/svg">
    <defs id="defs2" />
    <sodipodi:namedview id="namedview2" pagecolor="#ffffff" bordercolor="#000000" borderopacity="0.25" inkscape:showpageshadow="2" inkscape:pageopacity="0.0" inkscape:pagecheckerboard="0" inkscape:deskcolor="#d1d1d1" inkscape:zoom="0.62588235" inkscape:cx="249.24812" inkscape:cy="425" inkscape:window-width="888" inkscape:window-height="751" inkscape:window-x="0" inkscape:window-y="25" inkscape:window-maximized="0" inkscape:current-layer="svg2" />
    <path id="path1" d="M 240.43359 217.12695 L 226.90234 230.65625 L 226.90234 401.90234 L 55.65625 401.90234 L 42.126953 415.43359 L 42.126953 434.56641 L 55.65625 448.09766 L 226.90234 448.09766 L 226.90234 619.34375 L 240.43359 632.87305 L 259.56641 632.87305 L 273.09766 619.34375 L 273.09766 448.09766 L 444.3457 448.09766 L 457.87305 434.56641 L 457.87305 415.43359 L 444.34375 401.90234 L 273.09766 401.90234 L 273.09766 230.6543 L 259.56641 217.12695 L 240.43359 217.12695 z " />
</svg>

<svg width="500" height="850" xmlns="http://www.w3.org/2000/svg">
    <path d="m444.345 448.098 13.528-13.532v-19.132l-13.53-13.532H55.656l-13.53 13.532v19.132l13.53 13.532z" />
    <path d="m273.098 230.655-13.532-13.528h-19.132l-13.532 13.53v388.687l13.532 13.53h19.132l13.532-13.53z" />
</svg>
